!!!COM: Vivaldi, Antonio Lucio
!!!CDT: 1678/03/04-1741/08/28
!!!OPR: 12 sonatas for two violins and basso continuo
!!!OTL: Sonata in C major, op. @{OPS}, no. @{ONM} (@{SCT})
!!!OPS: 1
!!!ONM: 3
!!!OMV: 1. [Adagio]
!!!SCT: RV 61
!!!SCA: Antonio Vivaldi: Thematisch-systematisches Verzeichnis seiner Werke (Ryom-Verzeichnis)
!!!OMD: Adagio
!!!key: C
**kern	**fb	**kern	**kern
*part3	*	*part2	*part1
*staff3	*	*staff2	*staff1
*ICstr&ICklav	*	*ICstr	*ICstr
*Icello&Icemba	*	*Ivioln	*Ivioln
*	*	*I#2	*I#1
*I"Violoncello\nContinuo	*	*I"Violin 2	*I"Violin 1
*I'bc	*	*I'v2	*I'v1
*clefF4	*	*clefG2	*clefG2
*k[]	*	*k[]	*k[]
*C:	*	*C:	*C:
*M4/4	*	*M4/4	*M4/4
*met(c)	*	*met(c)	*met(c)
*MM44	*	*MM44	*MM44
=1	=1	=1	=1
8C/L	.	4r	2gg\
8D/	.	.	.
8E/	6	2ee\	.
8C/J	.	.	.
8F\L	7	.	4.aa\
8E\	.	.	.
8F\	6	[4dd\	.
8D\J	.	.	8aa\
=2	=2	=2	=2
8E\L	7	4dd\]	4.gg\
8G\	.	.	.
8A\	7	2cc\	.
8E\J	.	.	8gg\
8D\L	7	.	8ff\L
16E\L	.	.	16gg\L
16F\JJ	.	.	16aa\JJ
8G/L	.	4b\	8.gg\LT
8GG/J	.	.	.
.	.	.	16ff\Jk
=3	=3	=3	=3
8C/L	.	4.cc\	8ee\L
8D/	7 #	.	8ff#y\J
8E/	6	.	2gg\
8BB/J	6	8dd\	.
8AA/L	7	8cc\L	.
16BB/L	.	16dd\L	.
16C/JJ	.	16ee\JJ	.
8D/L	7 #	8.dd\L	4ff#X\t
8DD/J	.	.	.
.	.	16cc\Jk	.
=4	=4	=4	=4
8GG/L	.	4b\	4.gg\
8G/	.	.	.
8E/	6	2cc\	.
8C/J	.	.	16aa\LL
.	.	.	16gg\JJ
4D\	7 #	.	8ff#y\L
.	.	.	16ee\L
.	.	.	16dd\JJ
8E/L	5	8b\L	[4gg\
8GG/J	6	16ee\L	.
.	.	16dd\JJ	.
!!LO:LB:g=original
=5	=5	=5	=5
8AA\L	7 #	8cc#y\	8gg\L]
8A\	6 4	4dd\	8ffn\
8A\	5#| 4	.	8ee\
8AA\J	#	8cc#X\	[8aa\J
8BB\L	7 #	8dd#X\	8aa\L]
8B\	6 4	4ee\	8gg\
8B\	5 4	.	8ff#X\
8BB\J	n	8dd\	[8bb\J
=6	=6	=6	=6
8E\L	6 5	4cc\	8bb\]
8F#y\	5	.	4aa\
8G\	9	4b\	.
8GG\J	8	.	4gg\
8AA\L	7 #	8cc#X\	.
8A\	6-r 4	4dd\	8ffn\
8A\	5 4	.	8ee\L
8AA\J	n	[8ccn\	8aa\J
=7	=7	=7	=7
8D/L	7 #	8cc\]	8ff#X\L
8GG/	-	4b-X\	8gg\
8C/	7-/	.	8ee\
8F/J	7-/	4a/	8ee-X\J
4BB-X/	7	.	4.dd\
.	.	8b-X\	.
8B-X\L	6	[4g/	.
8G\J	6#/	.	8een\
=8	=8	=8	=8
8A\L	7 #	8g/L]	8cc#X\
8D\	.	8f/	4dd\
8A\	5 4	8e/	.
8AA\J	n	[8a/J	8ccn\
8D\L	6-r 5-r	8a/]	8b-X\L
8B-X\	6	4g/	8dd\
8A\	7 #	.	8cc#X\
8D\J	#	8f#X/	[8dd\J
=9	=9	=9	=9
8E\L	7 #	8g#X/	8dd\L]
8AA\	#	4a/	8cc#X\
8BB\	7 #	.	8dd#X\
8B\J	6 4	8gn/	[8ee\J
8B\L	5#| 4	8f#X/	8ee\L]
8BB\J	3	4b\	8ddn\
8E\L	6 5	.	8ccn\
8A\J	6	8a/	[8ffn\J
!!LO:LB:g=original
=10	=10	=10	=10
8G\L	7	8b/L	8ff\]
8C\	.	8cc/	4ee\
8F\	7	8a/	.
8BB\J	.	8b/J	4dd\
8E\L	7 #	8g#X/	.
8F\	5	4a/	8cc\
8D\	6 5	.	4b\
8E\J	#	8g#X/	.
=11	=11	=11	=11
8AA\L	.	4a/	8a\L
8A\	.	.	8cc\J
8c\	6	4r	8ee\L
8A\J	.	.	16aa\L
.	.	.	16gg\JJ
8d\L	.	8r	[2ff\
8D\	.	8a/	.
8F\	6	8dd\L	.
8D\J	.	16ee\L	.
.	.	16ff\JJ	.
=12	=12	=12	=12
4G\	7	4b\	8ff\L]
.	.	.	16gg\L
.	.	.	16ff\JJ
8C\L	.	4cc\	[4ee\
8E\J	.	.	.
4F\	7	4.a/	8ee\L]
.	.	.	16ff\L
.	.	.	16ee\JJ
8BB/L	7	.	[4dd\
8D/J	.	16b/LL	.
.	.	16a/JJ	.
=13	=13	=13	=13
4E\	7	8g/	8dd\L]
.	6	4ee\	8cc\J
4A\	6 5	.	2ff\
.	.	16dd\LL	.
.	.	16cc\JJ	.
4G\	7	4b\	.
8A\L	5	[4cc\	4ee\
8E\J	6	.	.
=14	=14	=14	=14
8F/L	6 5	4cc\]	2dd\
8D/	.	.	.
8G/	.	4b\	.
8GG/J	.	.	.
2C/;	.	2cc\;	2cc\;
==	==	==	==
*-	*-	*-	*-
!!!SMS: RV 61 / Estienne Roger (No. 363), Amsterdam [facs.]
!!!ENC: Fran Bennion   rev. 05/12/21 E Correia
!!!END: 2004/09/27
!!!ONB: Converted from MuseData with musedata2hum on Sat May 11 12:01:53 2024
!!!YEM: (C) 2004, 2019 Center for Computer Assisted Research in the Humanities
!!!system-decoration: [(s1,s2,s3)]
!!!URL-info: https://wiki.ccarh.org/wiki/MuseData:_Antonio_Vivaldi#Op._1:_Suonate_da_camera_a_tr.C3.A8.2C_due_violini_e_violone_o_cembalo Information about Vivaldi Op. 1 on the CCARH wiki
!!!URL-pdf: https://pdf.musedata.org/vivaldi-op01-no03.pdf#page=1 MuseData edition
!!!URL-pdf: https://s9.imslp.org/files/imglnks/usimg/1/18/IMSLP280399-PMLP10351-Vivaldi_Sonatas_Op_1_-_Violino_Primo.pdf#page=5 Violino primo part, Amsterdam: Estienne Roger, n.d.(ca.1723). Plate 363.
!!!URL-pdf: https://s9.imslp.org/files/imglnks/usimg/d/d5/IMSLP280400-PMLP10351-Vivaldi_Sonatas_Op_1_-_Violino_Secondo.pdf#page=5 Violino secondo part, Amsterdam: Estienne Roger, n.d.(ca.1723). Plate 363.
!!!URL-pdf: https://s9.imslp.org/files/imglnks/usimg/8/89/IMSLP280401-PMLP10351-Vivaldi_Sonatas_Op_1_-_Organo_e_Violoncello.pdf#page=5 Organo e Violoncello parts, Amsterdam: Estienne Roger, n.d.(ca.1723). Plate 363.
!!!URL-youtube: https://www.youtube.com/watch?v=P5HHPe_W6Uo&t=3514s L'Arte dell'Arco
!!!title: @{OTL}, mov. @{OMV}
!!!filter-vcross: vcross
!!!mei: scoreDef@tempo.dist="5"
!!!EEV: 2024/05/11
!!!source-file: https://bitbucket.org/musedata/vivaldi/src/master/roger/op1/no03/stage2/01/01
!!!source-file: https://bitbucket.org/musedata/vivaldi/src/master/roger/op1/no03/stage2/01/02
!!!source-file: https://bitbucket.org/musedata/vivaldi/src/master/roger/op1/no03/stage2/01/03
!!!source-file: https://bitbucket.org/musedata/vivaldi/src/master/roger/op1/no03/stage2/01/04
